X:1
T:Faithful, 11.8.11.8 D
T:Isaac Woodbury, 1847
T:Faithful, 11.8.11.8 D
T:Public Domain
C:Isaac Woodbury, 1847
Z:Public Domain
%%score ( 1 2 ) ( 3 4 )
L:1/8
M:4/4
K:G
V:1 treble 
V:2 treble 
V:3 bass 
V:4 bass 
V:1
 [B,D] | [B,D]2 [CE][B,D] [B,D]2 [B,G][DG] | [EG]2 [DF][CE] [B,D]3 [B,D] | %3
 [CE]2 [CG][CG] [DG]2 [DF][DG] | [DA]6 z [CD] | [B,D]2 [CE][B,D] [B,D]2 [B,G][DG] | %6
 [EG]2 [DF][CE] [B,D]3 [B,D] | [DB]2 [DA][DG] [EA]2 [DG][DF] | [B,G]6 [B,G]2 | %9
 [DA]2 [DA][DB] [Dc]2 [DB][DA] | [DB]2 [DB][Dc] [Dd]3 [Dd] | dB[B,G][B,G] [DG]2 [DF][DG] | %12
 [DA]6 z [CD] | [B,D]2 [CE][B,D] [B,D]2 [B,G][DG] | [EG]2 [DF][CE] [B,D]3 [B,D] | %15
 [DB]2 [DA][DG] [EA]2 [DG][CF] | [B,G]6 z |] %17
V:2
 x | x8 | x8 | x8 | x8 | x8 | x8 | x8 | x8 | x8 | x8 | D2 x6 | x8 | x8 | x8 | x8 | x7 |] %17
V:3
 [G,,G,] | [G,,G,]2 [G,,G,][G,,G,] [G,,G,]2 [G,,G,][G,,B,] | [C,C]2 [C,C][C,G,] [G,,G,]3 [G,,G,] | %3
 [C,G,]2 [C,E,][C,E,] [B,,G,]2 [A,,A,][G,,B,] | [D,F,]6 z [D,F,] | %5
 [G,,G,]2 [G,,G,][G,,G,] [G,,G,]2 [G,,G,][G,,B,] | [C,C]2 [C,C][C,G,] [G,,G,]3 [G,,G,] | %7
 [G,,G,]2 [A,,F,][B,,G,] [C,C]2 [D,B,][D,A,] | [G,,G,]6 [G,,G,]2 | %9
 [D,F,]2 [D,F,][D,G,] [D,A,]2 [D,G,][D,F,] | [G,,G,]2 [B,,G,][D,A,] [G,B,]3 [G,B,] | %11
 B,G,G,G, [B,,G,]2 [A,,A,][G,,B,] | [D,F,]6 z [D,F,] | %13
 [G,,G,]2 [G,,G,][G,,G,] [G,,G,]2 [G,,G,][G,,B,] | [C,C]2 [C,C][C,G,] [G,,G,]3 [G,,G,] | %15
 [G,,G,]2 [A,,F,][B,,G,] [C,C]2 [D,B,][D,A,] | [G,,G,]6 z |] %17
V:4
 x | x8 | x8 | x8 | x8 | x8 | x8 | x8 | x8 | x8 | x8 | G,2 G,G, x4 | x8 | x8 | x8 | x8 | x7 |] %17

